chart-sankey-variant.svg

<svg fill="currentColor" viewBox="0 0 24 24"><path d="M20 4v2H4V4H2v8h2v-2c4.16 0 5.92 2.11 7.77 4.34S15.65 19 20 19v2h2v-6h-2v2c-3.41 0-4.93-1.83-6.69-3.94C11.34 10.69 9.1 8 4 8h16v2h2V4Z"/></svg>

<svg  viewBox="0 0 24 24" fill="currentColor"><path  d="M20 4V6H4V4H2V12H4V10C8.16 10 9.92 12.11 11.77 14.34S15.65 19 20 19V21H22V15H20V17C16.59 17 15.07 15.17 13.31 13.06C11.34 10.69 9.1 8 4 8H20V10H22V4Z"/></svg>
